icons/code-rectanlge.svg

<svg xmlns="http://www.w3.org/2000/svg" viewBox="0 0 24 24" fill="currentColor">
  <path d="M7 5.75C5.21421 5.75 3.75 7.21421 3.75 9v6c0 1.7981 1.37646 3.25 3.25 3.25h10c1.7858 0 3.25-1.4642 3.25-3.25V9c0-1.78579-1.4642-3.25-3.25-3.25H7ZM2.25 9c0-2.61421 2.13579-4.75 4.75-4.75h10c2.6142 0 4.75 2.13579 4.75 4.75v6c0 2.6142-2.1358 4.75-4.75 4.75H7c-2.72646 0-4.75-2.1481-4.75-4.75V9Zm11.0196.46967c.2929-.29289.7678-.2929 1.0607 0l1.4 1.40003c.2705.2705.4447.6296.4447 1.0303 0 .4007-.1742.7598-.4447 1.0303l-1.4 1.4c-.2929.2929-.7678.2929-1.0607 0-.2929-.2929-.2929-.7677 0-1.0606L14.6393 11.9l-1.3697-1.3697c-.2929-.2929-.2929-.76773 0-1.06063Zm-2.6393 1.16063c.2929-.2929.2929-.76775 0-1.06065-.2929-.2929-.76773-.2929-1.06063-.00001L8.16965 10.9696c-.27052.2706-.44467.6297-.44467 1.0304 0 .4007.17415.7598.44467 1.0303l1.40002 1.4c.2929.2929.76773.2929 1.06063 0 .2929-.2929.2929-.7678 0-1.0607L9.26064 12l1.36966-1.3697Z"/>
</svg>

<svg width="24" height="24" viewBox="0 0 24 24" fill="none" xmlns="http://www.w3.org/2000/svg">
<path fill-rule="evenodd" clip-rule="evenodd" d="M7 5.75C5.21421 5.75 3.75 7.21421 3.75 9V15C3.75 16.7981 5.12646 18.25 7 18.25H17C18.7858 18.25 20.25 16.7858 20.25 15V9C20.25 7.21421 18.7858 5.75 17 5.75H7ZM2.25 9C2.25 6.38579 4.38579 4.25 7 4.25H17C19.6142 4.25 21.75 6.38579 21.75 9V15C21.75 17.6142 19.6142 19.75 17 19.75H7C4.27354 19.75 2.25 17.6019 2.25 15V9ZM13.2696 9.46967C13.5625 9.17678 14.0374 9.17677 14.3303 9.46967L15.7303 10.8697C16.0008 11.1402 16.175 11.4993 16.175 11.9C16.175 12.3007 16.0008 12.6598 15.7303 12.9303L14.3303 14.3303C14.0374 14.6232 13.5625 14.6232 13.2696 14.3303C12.9767 14.0374 12.9767 13.5626 13.2696 13.2697L14.6393 11.9L13.2696 10.5303C12.9767 10.2374 12.9767 9.76257 13.2696 9.46967ZM10.6303 10.6303C10.9232 10.3374 10.9232 9.86255 10.6303 9.56965C10.3374 9.27675 9.86257 9.27675 9.56967 9.56964L8.16965 10.9696L8.16965 10.9696C7.89913 11.2402 7.72498 11.5993 7.72498 12C7.72498 12.4007 7.89913 12.7598 8.16965 13.0303L9.56967 14.4303C9.86257 14.7232 10.3374 14.7232 10.6303 14.4303C10.9232 14.1374 10.9232 13.6625 10.6303 13.3696L9.26064 12L10.6303 10.6303Z" fill="black"/>
</svg>
